X: 11012
M: 6/8
L: 1/8
K: G
d2g B2c | e2d B2B | d2c A2A | e2d B2B/c/ |\
d2g B2c | e2d B2B | d2c A2F | G3 z2 H|]
d2c A2A | e2d B2B | d2c A2A | e2d B2B/c/ |\
d2g B2c | e2d B2B | d2c A2F | G3 "^D.C."z2 |]
(d/e//f//) |\
g2f age | d2B GBd | dcB BAG | FGA D2z d/e//f// |\
g2f age | d2B GBd | c2A G2F | G3 "^D.C."z2 |]


